X:1
T:Title
%%score ( 1 2 ) { 3 | 4 }
L:1/8
Q:1/4=100
M:4/4
K:Bb
V:1 treble nm="Grand Piano, Soprano"
V:2 treble 
V:3 bass nm="Choir Pad, The Song of the Morning"
V:4 bass 
V:1
 B2 D>F A2 G>D | F4 E4 | [Ec]2 [D=B]>[Ec] [Fd]2 [Ec]>[EA] | G4 F4 | ^F2 A>c e2 d>A | c4 B4 | %6
w: By~Ira~Bishop~Wilson * * * * *||||||
 A2 _A>=A B2 A>G | F8 | F4 =E4 | E>F G>A [Fd]2 [Ec]2 | F4 =E4 | E>F G>A [Fd]2 [Ec]2 | %12
w: ||||||
 B2 BB B>B BB | [B,EB]2 [CEB]2 [_D=EB]4 | [DFB]2 DE F>G F2 | [Fd]2 [Fd][Ec] [DB]4- | [DB]4 z4 |] %17
w: |||||
V:2
 x8 | x8 | x8 | D8 | x8 | x8 | x8 | z2 [A,E]2 [A,D]2 [A,C]2 | z2 [G,B,]2 z2 [G,B,]2 | x8 | %10
 z2 [G,B,]2 z2 [G,B,]2 | x8 | [DF]4 [DF]4 | x8 | x8 | x8 | x8 |] %17
V:3
 A,,2 B,2 F,,2 D2 | A,,2 C>C C2 C2 | A,,2 A,2 F,,2 A,2 | B,,2 B,>B, B,2 B,2 | A,,2 D2 D,2 D2 | %5
 G,,2 D>D D2 D2 | C,2[K:treble] F2 D2 C>B, | A,2[K:bass] G,2 F,2 E,2 | D,4 _D,4 | C,2 C2 F,,2 A,2 | %10
 D,4 _D,4 | C,2 C2 F,,2 A,2 | B,,2 B,2 _A,,2 _A,2 | G,,2 G,2 ^F,,2 ^F,2 | F,2 D,E, F,>G, F,2 | %15
 B,2 A,F, F,4- | F,4 z4 |] %17
V:4
 z2 F,2 z2 [F,B,]2 | z2 [F,A,]>[F,A,] [F,A,]2 [F,A,]2 | z2 F,2 z2 F,2 | z2 F,>F, F,2 F,2 | %4
 z2 [^F,A,]2 z2 [F,C]2 | z2 [G,B,]>[G,B,] [G,B,]2 [G,B,]2 | z2 [A,C]2 C,2 C,>C, | %7
 F,2 G,,2 F,,2 E,,2 | D,,4 _D,,4 | C,,2 [F,A,]2 z2 F,2 | D,,4 _D,,4 | C,,2 [F,A,]2 z2 F,2 | z8 | %13
 z8 | F,,2 z2 z4 | F,2 .F,2 B,,4- | B,,4 z4 |] %17

